fs/calendar_assistant_16_filled.svg

<svg viewBox="0 0 16 16" fill="none" xmlns="http://www.w3.org/2000/svg" height="1em" width="1em">
  <path d="M4.5 14H6.25716C5.47182 13.0491 5 11.8296 5 10.5C5 8.63984 5.92345 6.99537 7.33692 6H2V11.5C2 12.8807 3.11929 14 4.5 14ZM14 5H2V4.5C2 3.11929 3.11929 2 4.5 2H11.5C12.8807 2 14 3.11929 14 4.5V5ZM10.5 15C12.9853 15 15 12.9853 15 10.5C15 8.01472 12.9853 6 10.5 6C8.01472 6 6 8.01472 6 10.5C6 12.9853 8.01472 15 10.5 15ZM9.40834 7.83399C9.47878 7.63388 9.66783 7.5 9.87998 7.5H11.06C11.2207 7.5 11.3716 7.57726 11.4656 7.70764C11.5596 7.83803 11.5852 8.00564 11.5343 8.15811L11.2537 9H12C12.1829 9 12.3512 9.09987 12.4389 9.26041C12.5265 9.42094 12.5195 9.61653 12.4206 9.77038L10.1706 13.2704C10.0372 13.4779 9.77227 13.5571 9.54682 13.4569C9.32137 13.3566 9.20276 13.1069 9.26753 12.8688L9.77583 11H9C8.83781 11 8.68569 10.9213 8.59196 10.789C8.49822 10.6566 8.47452 10.487 8.52837 10.334L9.40834 7.83399Z" fill="#212121"/>
</svg>

<svg viewBox="0 0 16 16" fill="none" xmlns="http://www.w3.org/2000/svg" height="1em" width="1em">
  <path d="M4.5 14h1.757A5.478 5.478 0 0 1 5 10.5c0-1.86.923-3.505 2.337-4.5H2v5.5A2.5 2.5 0 0 0 4.5 14ZM14 5H2v-.5A2.5 2.5 0 0 1 4.5 2h7A2.5 2.5 0 0 1 14 4.5V5Zm-3.5 10a4.5 4.5 0 1 0 0-9 4.5 4.5 0 0 0 0 9ZM9.408 7.834A.5.5 0 0 1 9.88 7.5h1.18a.5.5 0 0 1 .474.658l-.28.842H12a.5.5 0 0 1 .42.77l-2.25 3.5a.5.5 0 0 1-.902-.401L9.776 11H9a.5.5 0 0 1-.472-.666l.88-2.5Z" fill="#212121"/>
</svg>
